<?xml version="1.0" encoding="UTF-8"?>
<map version="1.11" tiledversion="1.12.2" orientation="orthogonal" renderorder="right-down" width="32" height="12" tilewidth="40" tileheight="40" infinite="0" nextlayerid="8" nextobjectid="40">
 <editorsettings>
  <export target="rm_manor_topbattle.lua" format="lua"/>
 </editorsettings>
 <properties>
  <property name="name" value="Scarlet Manor - The Top"/>
 </properties>
 <tileset firstgid="1" source="../tilesets/castle.tsx"/>
 <imagelayer id="8" name="background" parallaxx="0" parallaxy="0">
  <image source="../../../assets/sprites/backgrounds/manor/bg_sky.png" width="640" height="480"/>
 </imagelayer>
 <imagelayer id="7" name="background">
  <image source="../../../assets/sprites/backgrounds/bg_battletop.png" width="1280" height="480"/>
 </imagelayer>
 <objectgroup color="#0000ff" id="3" name="collision" opacity="0.5">
  <object id="2" x="0" y="320" width="680" height="40"/>
  <object id="3" x="1240" y="320" width="40" height="40"/>
  <object id="7" x="0" y="120" width="680" height="40"/>
  <object id="24" x="1240" y="120" width="40" height="40"/>
  <object id="26" x="680" y="340" width="560" height="20"/>
  <object id="36" x="710.667" y="339.333">
   <polyline points="0,0 -14,-2.66667 -18.6667,-7.33333 -22.6667,-9.33333 -24.6667,-10.6667 -27.3333,-12.6667 -29.3333,-14.6667 -30,-17.3333 -32,-19.3333"/>
  </object>
  <object id="39" x="1208" y="340">
   <polyline points="0,0 14,-2.66667 18.6667,-7.33333 22.6667,-9.33333 24.6667,-10.6667 27.3333,-12.6667 29.3333,-14.6667 30,-17.3333 32,-19.3333"/>
  </object>
  <object id="37" x="681.333" y="157.333">
   <polyline points="0,0 8.66667,-4 12.6667,-8 15.3333,-12 18,-16.6667 20,-19.3333 21.3333,-22 22.6667,-27.3333 24.6667,-31.3333 26,-34.6667 27.3333,-40 30.6667,-44.6667 33.3333,-48.6667 38,-53.3333 40,-54.6667 42.6667,-58 46.6667,-62 50,-64.6667 51.3333,-66 54.6667,-68.6667 60,-68.6667 64.6667,-69.3333 66,-70 71.3333,-70.6667 74.6667,-74 77.3333,-76 78,-78.6667"/>
  </object>
  <object id="38" x="1240" y="160">
   <polyline points="0,0 -8.66667,-4 -12.6667,-8 -15.3333,-12 -18,-16.6667 -20,-19.3333 -21.3333,-22 -22.6667,-27.3333 -24.6667,-31.3333 -26,-34.6667 -27.3333,-40 -30.6667,-44.6667 -33.3333,-48.6667 -38,-53.3333 -40,-54.6667 -42.6667,-58 -46.6667,-62 -50,-64.6667 -51.3333,-66 -54.6667,-68.6667 -60,-68.6667 -64.6667,-69.3333 -66,-70 -71.3333,-70.6667 -74.6667,-74 -77.3333,-76 -78,-78.6667"/>
  </object>
 </objectgroup>
 <objectgroup color="#ff00ff" id="5" name="objects">
  <object id="6" name="npc" x="1160" y="200" width="40" height="40">
   <properties>
    <property name="actor" value="remilia"/>
   </properties>
  </object>
  <object id="9" name="transition" x="-40" y="160" width="40" height="160">
   <properties>
    <property name="map" value="rm_lake_bridge"/>
    <property name="marker" value="entry_right"/>
   </properties>
  </object>
  <object id="14" name="savepoint" x="80" y="120" width="40" height="40">
   <properties>
    <property name="text1" value="* "/>
    <property name="text2" value="* "/>
   </properties>
  </object>
  <object id="32" name="transition" x="1280" y="160" width="40" height="160">
   <properties>
    <property name="map" value="rm_intro"/>
    <property name="marker" value="spawn"/>
   </properties>
  </object>
  <object id="55" name="script" x="280" y="160" width="40" height="160">
   <properties>
    <property name="cutscene" value="rm_manor_topbattle.before"/>
    <property name="once" type="bool" value="false"/>
   </properties>
  </object>
  <object id="56" name="npc" x="720" y="200" width="40" height="40">
   <properties>
    <property name="actor" value="koakuma"/>
   </properties>
  </object>
 </objectgroup>
 <objectgroup color="#7f00ff" id="4" name="markers">
  <object id="5" name="camera" x="960" y="240">
   <point/>
  </object>
  <object id="8" name="entry" x="40" y="240">
   <point/>
  </object>
  <object id="28" name="spawn" x="100" y="240">
   <point/>
  </object>
 </objectgroup>
</map>
