<?xml version="1.0" encoding="UTF-8"?>
<map version="1.11" tiledversion="1.12.2" orientation="orthogonal" renderorder="right-down" width="16" height="12" tilewidth="40" tileheight="40" infinite="0" nextlayerid="10" nextobjectid="23">
 <editorsettings>
  <export target="room_girl.lua" format="lua"/>
 </editorsettings>
 <properties>
  <property name="music" value="man"/>
 </properties>
 <tileset firstgid="1" source="../tilesets/castle.tsx"/>
 <tileset firstgid="41" source="../tilesets/bg_neoruins.tsx"/>
 <layer id="1" name="tiles" width="16" height="12">
  <data encoding="csv">
0,0,0,0,0,0,0,0,0,0,0,0,0,0,0,0,
0,0,0,0,0,0,47,47,47,47,0,0,0,0,0,0,
0,0,0,0,47,47,47,47,47,47,47,47,0,0,0,0,
0,0,47,47,47,47,47,47,47,47,47,47,47,47,0,0,
0,0,47,47,47,47,47,47,47,47,47,47,47,47,0,0,
0,0,47,47,47,47,47,47,47,47,47,47,47,47,0,0,
0,0,47,47,47,47,47,47,47,47,47,47,47,47,0,0,
0,0,0,0,47,47,47,47,47,47,47,47,0,0,0,0,
0,0,0,0,0,0,47,47,47,47,0,0,0,0,0,0,
0,0,0,0,0,0,0,47,47,0,0,0,0,0,0,0,
0,0,0,0,0,0,0,47,47,0,0,0,0,0,0,0,
0,0,0,0,0,0,0,47,47,0,0,0,0,0,0,0
</data>
 </layer>
 <objectgroup color="#0000ff" id="2" name="collision">
  <object id="1" x="640" y="0" width="40" height="400"/>
  <object id="2" x="-40" y="0" width="40" height="400"/>
  <object id="3" x="0" y="-40" width="640" height="40"/>
  <object id="4" x="0" y="400" width="240" height="40"/>
  <object id="5" x="400" y="400" width="240" height="40"/>
  <object id="6" x="240" y="400" width="40" height="80"/>
  <object id="7" x="360" y="400" width="40" height="80"/>
 </objectgroup>
 <objectgroup color="#7f00ff" id="4" name="markers">
  <object id="10" name="spawn" x="320" y="440">
   <point/>
  </object>
  <object id="11" name="entry" x="320" y="440">
   <point/>
  </object>
 </objectgroup>
 <objectgroup color="#ff00ff" id="3" name="objects">
  <object id="9" name="transition" x="280" y="480" width="80" height="40">
   <properties>
    <property name="map" value="room2"/>
    <property name="marker" value="entry"/>
   </properties>
  </object>
  <object id="14" name="npc" x="280" y="240" width="80" height="40">
   <properties>
    <property name="actor" value="apple_tree"/>
    <property name="cutscene" value="room_girl.tree"/>
   </properties>
  </object>
  <object id="21" name="interactable" x="280" y="80" width="80" height="160">
   <properties>
    <property name="cutscene" value="room_girl.girl"/>
   </properties>
  </object>
 </objectgroup>
</map>
