<?xml version="1.0" encoding="UTF-8"?>
<map version="1.11" tiledversion="1.12.2" orientation="orthogonal" renderorder="right-down" width="28" height="12" tilewidth="40" tileheight="40" infinite="0" nextlayerid="10" nextobjectid="31">
 <editorsettings>
  <export target="room_bridge.lua" format="lua"/>
 </editorsettings>
 <properties>
  <property name="name" value="Misty Lake - Bridge"/>
 </properties>
 <tileset firstgid="1" source="../tilesets/178misty.tsx"/>
 <tileset firstgid="267" source="../tilesets/bg_neoruins.tsx"/>
 <layer id="1" name="tiles" width="28" height="12">
  <data encoding="csv">
20,20,3,20,20,20,20,20,1,20,1,20,20,20,31,32,33,21,21,21,21,21,21,21,273,273,273,273,
39,1,20,39,20,20,20,1,20,20,20,1,20,20,50,51,35,52,81,77,81,21,21,21,273,273,273,273,
58,39,39,58,1,39,39,62,39,1,39,20,39,68,69,70,35,71,96,73,96,21,21,21,21,273,273,273,
77,58,58,81,78,58,58,77,58,81,78,58,58,77,81,78,35,90,115,92,115,21,21,21,21,273,273,273,
96,96,96,100,96,96,96,96,96,100,96,96,96,96,100,96,96,96,96,96,96,96,96,96,96,114,273,273,
115,115,115,119,115,115,115,115,115,119,115,115,115,115,119,115,115,115,115,130,115,115,115,115,115,133,273,273,
134,135,136,138,139,139,140,141,142,138,139,145,146,147,138,139,145,146,147,149,150,145,146,147,151,152,273,273,
58,58,58,58,58,58,58,58,58,58,58,58,58,58,58,58,58,21,21,21,21,21,21,21,21,171,273,273,
58,58,58,58,58,58,3,58,58,58,58,58,58,1,58,42,58,21,21,21,21,21,21,21,1,21,21,273,
172,58,58,58,58,58,58,58,58,58,42,58,58,58,58,58,58,21,21,21,1,21,21,21,21,21,21,21,
58,58,58,58,58,58,58,58,42,58,58,58,58,58,58,58,58,21,21,21,21,21,21,21,21,21,1,21,
58,172,58,58,58,58,58,58,58,58,58,58,42,58,58,58,58,21,21,21,21,21,21,21,21,21,21,21
</data>
 </layer>
 <objectgroup color="#0000ff" id="2" name="collision">
  <object id="1" x="840" y="40" width="40" height="120"/>
  <object id="2" x="680" y="40" width="40" height="120"/>
  <object id="3" x="0" y="120" width="680" height="40"/>
  <object id="4" x="0" y="240" width="1120" height="40"/>
  <object id="5" x="880" y="120" width="240" height="40"/>
  <object id="6" x="720" y="40" width="120" height="40"/>
 </objectgroup>
 <objectgroup color="#ff00ff" id="3" name="objects">
  <object id="9" name="transition" x="-40" y="160" width="40" height="80">
   <properties>
    <property name="map" value="room1"/>
    <property name="marker" value="entry"/>
   </properties>
  </object>
  <object id="14" name="npc" x="360" y="160" width="40" height="40">
   <properties>
    <property name="actor" value="koakuma"/>
    <property name="once" type="bool" value="true"/>
   </properties>
  </object>
  <object id="21" name="interactable" x="760" y="120" width="40" height="40">
   <properties>
    <property name="cutscene" value="room_girl.girl"/>
    <property name="solid" type="bool" value="true"/>
   </properties>
  </object>
  <object id="23" name="transition" x="1120" y="160" width="40" height="80">
   <properties>
    <property name="map" value="room2"/>
    <property name="marker" value="entry"/>
   </properties>
  </object>
  <object id="25" name="script" x="320" y="160" width="40" height="80">
   <properties>
    <property name="cutscene" value="koakuma.bridge"/>
    <property name="once" type="bool" value="true"/>
   </properties>
  </object>
  <object id="30" name="enemy" x="840" y="160" width="40" height="40">
   <properties>
    <property name="actor" value="rumia"/>
    <property name="encounter" value="rumia"/>
    <property name="once" type="bool" value="true"/>
   </properties>
  </object>
 </objectgroup>
 <objectgroup color="#7f00ff" id="4" name="markers">
  <object id="10" name="spawn" x="160" y="200">
   <point/>
  </object>
  <object id="11" name="entry_left" x="40" y="200">
   <point/>
  </object>
  <object id="24" name="entry_right" x="1080" y="200">
   <point/>
  </object>
  <object id="27" name="camera" x="640" y="240">
   <point/>
  </object>
 </objectgroup>
</map>
