<?xml version="1.0" encoding="UTF-8"?>
<map version="1.11" tiledversion="1.12.2" orientation="orthogonal" renderorder="right-down" width="20" height="24" tilewidth="40" tileheight="40" infinite="0" nextlayerid="10" nextobjectid="86">
 <editorsettings>
  <export target="room1.lua" format="lua"/>
 </editorsettings>
 <properties>
  <property name="name" value="Test Map - Room 1"/>
 </properties>
 <tileset firstgid="1" source="../tilesets/castle.tsx"/>
 <tileset firstgid="41" source="../tilesets/mistylake.tsx"/>
 <layer id="1" name="tiles" width="20" height="24">
  <data encoding="csv">
0,22,13,23,23,13,23,23,23,13,23,23,13,24,0,0,0,0,0,0,
0,22,23,23,23,23,23,21,23,23,23,23,23,24,0,0,0,0,0,0,
0,26,27,27,27,27,27,27,27,27,27,27,27,28,0,0,0,0,0,0,
0,6,7,7,7,7,7,7,7,7,7,21,17,21,0,0,0,0,0,0,
0,10,11,11,11,11,11,11,11,11,11,17,21,17,0,0,0,0,0,0,
0,10,11,11,11,11,11,11,11,11,11,21,17,21,7,7,7,7,7,7,
0,10,11,11,11,11,11,11,11,11,11,11,11,11,15,15,15,15,15,15,
0,10,11,11,11,11,11,11,11,11,11,11,11,12,0,0,0,0,0,0,
0,14,15,15,11,11,11,11,11,11,11,15,15,16,0,0,0,0,0,0,
0,0,0,0,14,15,11,11,11,15,16,0,0,0,0,0,0,0,0,0,
0,0,0,0,0,0,2,3,4,0,0,0,0,0,0,0,0,0,0,0,
0,0,0,0,0,0,2,3,4,0,0,0,0,0,0,0,0,0,0,0,
0,0,0,0,0,0,2,3,4,0,0,0,0,0,0,0,0,0,0,0,
0,0,0,0,0,0,2,3,4,0,0,0,0,0,0,0,18,19,20,0,
0,0,23,23,0,0,2,3,4,0,0,0,0,0,0,0,22,23,24,0,
0,23,23,23,23,0,2,3,4,0,0,0,0,0,0,0,22,9,24,0,
0,23,11,11,23,0,2,3,4,0,0,11,11,0,0,0,10,11,12,0,
0,23,11,11,23,0,2,3,4,0,0,11,11,0,0,0,10,11,12,0,
0,6,11,11,7,7,11,11,11,7,7,11,11,7,7,7,11,11,12,0,
0,10,11,11,11,11,11,11,11,11,11,11,11,11,15,15,15,15,16,0,
0,10,11,11,11,11,11,11,11,11,11,11,11,12,0,0,0,0,0,0,
0,10,11,11,11,11,11,11,11,11,11,11,11,12,0,0,0,0,0,0,
0,14,15,15,15,15,15,15,15,15,15,15,15,16,0,0,0,0,0,0,
0,0,0,0,0,0,0,0,0,0,0,0,0,0,0,0,0,0,0,0
</data>
 </layer>
 <layer id="2" name="decal" width="20" height="24">
  <data encoding="csv">
0,0,0,0,0,0,0,0,0,0,0,0,0,0,0,0,0,0,0,0,
0,0,0,0,0,0,0,0,0,0,0,0,0,0,0,0,0,0,0,0,
0,0,0,0,0,0,0,0,0,0,0,0,0,0,0,0,0,0,0,0,
0,0,0,0,0,0,0,0,0,0,0,0,0,0,0,0,0,0,0,0,
0,0,0,0,0,0,0,0,0,0,0,0,0,0,0,0,0,0,0,0,
0,0,0,0,0,0,30,31,32,0,0,0,0,0,0,0,0,0,0,0,
0,0,0,0,0,0,34,35,36,0,0,0,0,0,0,0,0,0,0,0,
0,0,0,0,0,0,38,39,40,0,0,0,0,0,0,0,0,0,0,0,
0,0,0,0,0,0,0,0,0,0,0,0,0,0,0,0,0,0,0,0,
0,0,0,0,0,0,0,0,0,0,0,0,0,0,0,0,0,0,0,0,
0,0,0,0,0,0,0,0,0,0,0,0,0,0,0,0,0,0,0,0,
0,0,0,0,0,0,0,0,0,0,0,0,0,0,0,0,0,0,0,0,
0,0,0,0,0,0,0,0,0,0,0,0,0,0,0,0,0,0,0,0,
0,0,0,0,0,0,0,0,0,0,0,0,0,0,0,0,0,0,0,0,
0,0,0,0,0,0,0,0,0,0,0,0,0,0,0,0,0,0,0,0,
0,0,0,0,0,0,0,0,0,0,0,0,0,0,0,0,0,0,0,0,
0,0,0,0,0,0,0,0,0,0,0,0,0,0,0,0,0,0,0,0,
0,0,0,0,0,0,0,0,0,0,0,0,0,0,0,0,0,0,0,0,
0,0,0,0,0,0,0,0,0,0,0,0,0,0,0,0,0,0,0,0,
0,0,0,0,0,0,0,0,0,0,0,0,0,0,0,0,0,0,0,0,
0,0,0,0,0,0,0,0,0,0,0,0,0,0,0,0,0,0,0,0,
0,0,0,0,0,0,0,0,0,0,0,0,0,0,0,0,0,0,0,0,
0,0,0,0,0,0,0,0,0,0,0,0,0,0,0,0,0,0,0,0,
0,0,0,0,0,0,0,0,0,0,0,0,0,0,0,0,0,0,0,0
</data>
 </layer>
 <layer id="8" name="bg" width="20" height="24">
  <data encoding="csv">
0,0,0,0,0,0,0,0,0,0,0,0,0,0,0,0,0,0,0,0,
0,0,0,0,0,0,0,0,0,0,0,0,0,0,0,0,0,0,0,0,
0,0,0,0,0,0,0,0,0,0,0,0,0,0,0,0,0,0,0,0,
0,0,0,0,0,0,0,0,0,0,0,0,0,0,0,0,0,0,0,0,
0,0,0,0,0,0,0,0,0,0,0,0,90,0,0,0,0,0,0,0,
0,0,0,0,0,0,0,0,0,0,0,0,0,0,0,0,0,0,0,0,
0,0,0,0,0,0,0,0,0,0,0,0,0,0,0,0,0,0,0,0,
0,0,0,0,0,0,0,0,0,0,0,0,0,0,0,0,0,0,0,0,
0,0,0,0,0,0,0,0,0,0,0,0,0,0,0,0,0,0,0,0,
0,0,0,0,0,0,0,0,0,0,0,0,0,0,0,0,0,0,0,0,
0,0,0,0,0,0,0,0,0,0,0,0,0,0,0,0,0,0,0,0,
0,0,0,0,0,0,0,0,0,0,0,0,0,0,0,0,0,0,0,0,
0,0,0,0,0,0,0,0,0,0,0,0,0,0,0,0,0,0,0,0,
0,0,0,0,0,0,0,0,0,0,0,0,0,0,0,0,0,0,0,0,
0,0,0,0,0,0,0,0,0,0,0,0,0,0,0,0,0,0,0,0,
0,0,0,0,0,0,0,0,0,0,0,0,0,0,0,0,0,0,0,0,
0,0,0,0,0,0,0,0,0,0,0,0,0,0,0,0,0,0,0,0,
0,0,0,0,0,0,0,0,0,0,0,0,0,0,0,0,0,0,0,0,
0,0,0,0,0,0,0,0,0,0,0,0,0,0,0,0,0,0,0,0,
0,0,0,0,0,0,0,0,0,0,0,0,0,0,0,0,0,0,0,0,
0,0,0,0,0,0,0,0,0,0,0,0,0,0,0,0,0,0,0,0,
0,0,0,0,0,0,0,0,0,0,0,0,0,0,0,0,0,0,0,0,
0,0,0,0,0,0,0,0,0,0,0,0,0,0,0,0,0,0,0,0,
0,0,0,0,0,0,0,0,0,0,0,0,0,0,0,0,0,0,0,0
</data>
 </layer>
 <objectgroup color="#0000ff" id="7" name="collision" opacity="0.5">
  <object id="47" x="40" y="80" width="520" height="40"/>
  <object id="48" x="560" y="120" width="40" height="80"/>
  <object id="49" x="600" y="160" width="200" height="40"/>
  <object id="50" x="560" y="280" width="40" height="80"/>
  <object id="51" x="600" y="280" width="200" height="40"/>
  <object id="52" x="440" y="360" width="120" height="40"/>
  <object id="53" x="360" y="400" width="80" height="40"/>
  <object id="54" x="360" y="680" width="80" height="40"/>
  <object id="55" x="560" y="800" width="40" height="120"/>
  <object id="56" x="40" y="920" width="520" height="40"/>
  <object id="57" x="0" y="720" width="40" height="200"/>
  <object id="58" x="40" y="680" width="40" height="40"/>
  <object id="59" x="160" y="400" width="80" height="40"/>
  <object id="60" x="40" y="360" width="120" height="40"/>
  <object id="61" x="0" y="120" width="40" height="240"/>
  <object id="62" x="200" y="440" width="40" height="240"/>
  <object id="63" x="360" y="440" width="40" height="240"/>
  <object id="64" x="600" y="640" width="40" height="80"/>
  <object id="65" x="640" y="600" width="120" height="40"/>
  <object id="66" x="760" y="640" width="40" height="160"/>
  <object id="67" x="600" y="800" width="160" height="40"/>
  <object id="68" x="160" y="680" width="80" height="40"/>
  <object id="72" x="520" y="680" width="80" height="40"/>
 </objectgroup>
 <objectgroup color="#ff00ff" id="9" name="objects">
  <object id="75" name="npc" x="480" y="840" width="40" height="40">
   <properties>
    <property name="actor" value="kogasa"/>
    <property name="cutscene" value="debug_seija.set_weird"/>
   </properties>
  </object>
  <object id="76" name="savepoint" x="80" y="210" width="40" height="40">
   <properties>
    <property name="text1">* Silence echoes in the darkness
of this familiar-yet-different
scenery.</property>
    <property name="text2">* The power of avoiding copying
official music shines within
you.</property>
   </properties>
  </object>
  <object id="77" name="squeak" x="680" y="600" width="40" height="40"/>
  <object id="78" name="transition" x="800" y="200" width="40" height="80">
   <properties>
    <property name="map" value="rm_lake_bridge"/>
    <property name="marker" value="entry_left"/>
   </properties>
  </object>
  <object id="79" name="interactable" x="280" y="80" width="40" height="40">
   <properties>
    <property name="cutscene" value="room1.wall"/>
    <property name="once" type="bool" value="true"/>
   </properties>
  </object>
  <object id="80" name="npc" x="300" y="160">
   <properties>
    <property name="actor" value="wall"/>
    <property name="flagcheck" value="wall_hit"/>
    <property name="text1">* I Am the Wall Guardian.[wait:5]
* This Wall is Off Limits for you
no-good wall slammers.</property>
   </properties>
   <point/>
  </object>
  <object id="81" name="transition" x="80" y="680" width="80" height="40">
   <properties>
    <property name="facing" value="down"/>
    <property name="marker" type="object" value="46"/>
    <property name="shop" value="meirin"/>
   </properties>
  </object>
  <object id="82" name="transition" x="440" y="680" width="80" height="40">
   <properties>
    <property name="map" value="rm_myhallway"/>
    <property name="marker" value="entry"/>
   </properties>
  </object>
  <object id="83" name="script" x="640" y="640" width="120" height="40">
   <properties>
    <property name="once" type="bool" value="false"/>
    <property name="script" value="room_girl"/>
   </properties>
  </object>
  <object id="84" name="npc" x="480" y="280" width="40" height="40">
   <properties>
    <property name="actor" value="starwalker"/>
    <property name="cutscene" value="debug_seija.set"/>
   </properties>
  </object>
  <object id="85" name="npc" x="480" y="160" width="40" height="40">
   <properties>
    <property name="actor" value="starwalker"/>
    <property name="cutscene" value="debug_seija.anim"/>
   </properties>
  </object>
 </objectgroup>
 <objectgroup color="#7f00ff" id="5" name="markers">
  <object id="20" name="spawn" x="300" y="250">
   <point/>
  </object>
  <object id="30" name="entry" x="760" y="240">
   <point/>
  </object>
  <object id="46" name="shop_exit" x="120" y="760">
   <point/>
  </object>
 </objectgroup>
</map>
